X: 20902
M: 3/4
L: 1/8
K: C
c3 Gce | g3 ceg |\
c'2c'2c'2 | c'bagfe |\
[f2d2][f2d2][f2d2] | [e2c2] a>g f/e/d/c/ |\
[B2G2][B2G2][B2G2] | [c2E2]z2 :: g>g |\
g=fefdB | G4 ce |
gc'b_ba^g | =ba^gafd |\
c4 e>d | c2z2 :: g2 |\
e2c2G2 | E2C2g2 |\
f2d2G2 | F2D2 g>g |\
c'bagfe | agfedc |\


